X:1
T:Title
L:1/8
M:4/4
I:linebreak $
K:D
V:1 treble nm="Voice"
V:1
"D" AFFF ADFA | z fef"G" g2 fe | dedB"D" AFFF | Adfd edzB |"D" AFFF ADFA | z fef"G" g2 fe | %6
 dedB"D" A2 df |1"A" afda"D" fdzB :|2"A" afda"D" fdf(a |:"D" a)bag f2 fe | dedc"G" BGzg | %11
 gfga b2 gb |"D" a2 fa"A" ge e2 |"D" AFFF ADFA | z fef"G" g2 fe | dedB"D" A2 df |1 %16
"A" afda"D" fdfa :|2"A" afda"D" fd z B |] %18
